X: 11706
T: Eisht As Nish
R: jig
M: 6/8
K: Bminor
f2f f2e-|e3 f2e|d2d B2c-|c3 c3|
B3 B2A|FFF F2F|d3 d2B|c3 dde|
f2f f2e|dd2 ccc|B5-|B5||

